contributed-vectors/x_kom.svg

<svg xmlns="http://www.w3.org/2000/svg" viewBox="0 0 192 192"><path fill="#9abeff" d="M33.94 33.94a11.68 11.68 0 0 1 16.55 0l18.62 18.62-16.55 16.55-18.62-18.62a11.68 11.68 0 0 1 0-16.55Z"/><path fill="#728dbe" d="M52.56 52.56a11.68 11.68 0 0 1 16.55 0L79.45 62.9 62.9 79.45 52.56 69.11a11.68 11.68 0 0 1 0-16.55Z"/><path fill="#bd9aff" d="M158.06 158.06a11.68 11.68 0 0 0 0-16.55l-21.14-21.14-16.55 16.55 21.14 21.14a11.68 11.68 0 0 0 16.55 0Z"/><path fill="#8c72bd" d="M136.92 136.92a11.68 11.68 0 0 0 0-16.55L126.58 110 110 126.58l10.34 10.34a11.68 11.68 0 0 0 16.55 0Z"/><path fill="#ff837d" d="M33.94 141.51a11.7 11.7 0 0 0 16.55 16.55L65 143.58 48.42 127Zm84.81-84.81 16.55 16.55 22.76-22.76a11.7 11.7 0 0 0-16.55-16.55Z"/><path fill="#ba6561" d="M48.42 127A11.7 11.7 0 0 0 65 143.58l10.34-10.35-16.57-16.54Zm57.92-57.92 16.55 16.55 12.41-12.38a11.7 11.7 0 1 0-16.55-16.55Z"/><path fill="#56595b" d="M62.9 62.9a11.68 11.68 0 0 0 0 16.55L79.45 96l-20.68 20.69a11.7 11.7 0 0 0 16.54 16.54L96 112.55l14 14A11.7 11.7 0 1 0 126.58 110l-14-14 10.34-10.34a11.7 11.7 0 1 0-16.55-16.55L96 79.45 79.45 62.9a11.68 11.68 0 0 0-16.55 0Z"/></svg>

<svg xmlns="http://www.w3.org/2000/svg" viewBox="0 0 192 192"><title>x-kom</title><path d="M33.94,33.94a11.68,11.68,0,0,1,16.55,0L69.11,52.56,52.56,69.11,33.94,50.49A11.68,11.68,0,0,1,33.94,33.94Z" fill="#9abeff"/><path d="M52.56,52.56a11.68,11.68,0,0,1,16.55,0L79.45,62.9,62.9,79.45,52.56,69.11a11.68,11.68,0,0,1,0-16.55Z" fill="#728dbe"/><path d="M158.06,158.06a11.68,11.68,0,0,0,0-16.55l-21.14-21.14-16.55,16.55,21.14,21.14A11.68,11.68,0,0,0,158.06,158.06Z" fill="#bd9aff"/><path d="M136.92,136.92a11.68,11.68,0,0,0,0-16.55L126.58,110,110,126.58l10.34,10.34a11.68,11.68,0,0,0,16.55,0Z" fill="#8c72bd"/><path d="M33.94,141.51a11.7,11.7,0,0,0,16.55,16.55L65,143.58,48.42,127ZM118.75,56.7,135.3,73.25l22.76-22.76a11.7,11.7,0,0,0-16.55-16.55Z" fill="#ff837d"/><path d="M48.42,127A11.7,11.7,0,0,0,65,143.58l10.34-10.35L58.77,116.69Zm57.92-57.92,16.55,16.55L135.3,73.25A11.7,11.7,0,1,0,118.75,56.7Z" fill="#ba6561"/><path d="M62.9,62.9a11.68,11.68,0,0,0,0,16.55L79.45,96,58.77,116.69a11.7,11.7,0,0,0,16.54,16.54L96,112.55l14,14A11.7,11.7,0,1,0,126.58,110l-14-14,10.34-10.34a11.7,11.7,0,1,0-16.55-16.55L96,79.45,79.45,62.9A11.68,11.68,0,0,0,62.9,62.9Z" fill="#56595b"/></svg>
